X: 1050
T: Aly's Soond
R: reel
M: 4/4
K: Dmajor
FE|DFAB AFAB|defd efdB|AFAB defd|gefd e2
FE|DFAB AFAB|defd efge|afed edBA|Bddc d2:|
fe|dBBA FBBc|dBcA B2 fe|dBBA FBBA|EAA^G A2
fe|dBBA FBBc|dcde fefg|afed edBA|Bddc d2:|

